X:1
T:Carlisle, SM
T:Carlisle, SM
T:Charles Lockhart, 1791
T:Public Domain Courtesy of the Cyber Hymnal™
C:Charles Lockhart, 1791
Z:Public Domain
Z:Courtesy of the Cyber Hymnal™
%%score ( 1 2 ) ( 3 4 )
L:1/8
Q:1/4=108
M:none
K:Eb
V:1 treble 
V:2 treble 
V:3 bass 
V:4 bass 
V:1
 E2 | [B,B]2 [CE]2 (GF) (ED) | [B,E]6 E2 | [EA]2 (Bc) [EB]2 (EA) | ([EG]2 [DF]4) [DF]2 | %5
 G2 (FE) A2 (GF) | B2 (AG) [Ec]2 [Fd]2 | [Ee]2 (E[FA]) [EG]2 [DF]2 | E6 |] %9
V:2
 E2 | x4 C2 B,2 | x6 E2 | x2 E2 x E2 x | x8 | (ED) C2 (FE) D2 | (GF) E2 x4 | x2 E x5 | E6 |] %9
V:3
 [E,G,]2 | [D,F,]2 [C,G,]2 (B,A,) (G,F,) | [E,G,]6 G,2 | %3
 [C,A,]2 ([B,,G,][A,,A,]) [G,,B,]2 [A,,C]2 | [B,,B,]6 [B,,B,]2 | [E,B,]2 A,2 [F,C]2 B,2 | %6
 [G,B,]2 ([CE][B,_D]) [A,C]2 [A,B,]2 | [G,B,]2 ([C,G,][A,,C]) [B,,B,]2 (B,A,) | [E,G,]6 |] %9
V:4
 x2 | x4 A,,2 B,,2 | x6 (E,_D,) | x8 | x8 | x2 (A,G,) x (B,A,) x | x8 | x6 B,,2 | x6 |] %9

